!!!!SEGMENT: pl-cz--i-10--005_engel-jan--requiem-osanna.krn
!!!cenid: 17xx:880
!!!COM: Engel, Jan
!!!COM-rismid: pe30009138
!!!CDT: <1772->1788
!!!CNT:
!!!OTL: Requiem – Osanna
!!!PDT:
!!!AGN: Sacred; Requiem
!!!SMS-siglum: PL-CZ
!!!SMS-shelfmark: I-10
!!!SMS-shelfwork: 001-005 M
!!!SMS-variant:
!!!SMS-altvar:
!!!NIFC-rismid: 300000291
!!!URL-scan: http://repozytorium.nifc.pl/skany/pl-cz-nut--i-10
!!!ONB-nifc: UWAGA: części Requiem: Requiem, Dies irae, Domine Jesu Christe, Sanctus et Benedictus, Osanna, Agnus Dei
**kern	**dynam	**kern	**kern	**dynam	**kern	**dynam	**kern	**kern	**text	**kern	**text	**kern	**text	**kern	**text	**kern	**kern	**kern	**dynam	**kern	**kern	**kern	**dynam
*part15	*part15	*part14	*part13	*part13	*part12	*part12	*part11	*part10	*part10	*part9	*part9	*part8	*part8	*part7	*part7	*part6	*part5	*part4	*part4	*part3	*part2	*part1	*part1
*staff15	*	*staff14	*staff13	*	*staff12	*	*staff11	*staff10	*staff10	*staff9	*staff9	*staff8	*staff8	*staff7	*staff7	*staff6	*staff5	*staff4	*	*staff3	*staff2	*staff1	*
*I"Fundamento.	*	*I"Viola IIda	*I"Viola Ima	*	*I"Violino Secondo.	*	*I"Violino. Primo.	*I"Baſso.	*	*I"Tenore	*	*I"Alto.	*	*I"Canto.	*	*I"Cornu Secondo in Dis.	*I"Cornu Primo in Dis	*I"Clarinetto Secondo in B	*	*I"Clarinetto Primo in B.	*I"Flauto Secondo.	*I"Flauto Primo	*
*I'bc	*	*I'vla 2	*I'vla 1	*	*I'vl 2	*	*I'vl 1	*I'B	*	*I'T	*	*I'A	*	*I'S	*	*I'cor 1 in Dis	*I'cor 1 in Dis	*I'cl 2 in B	*	*I'cl 1 in B	*I'fl 2	*I'fl 1	*
*clefF4	*	*clefC3	*clefC3	*	*clefG2	*	*clefG2	*clefF4	*	*clefC4	*	*clefC3	*	*clefC1	*	*clefG2	*clefG2	*clefG2	*	*clefG2	*clefG2	*clefG2	*
*	*	*	*	*	*	*	*	*	*	*	*	*	*	*	*	*ITrd-2c-3	*ITrd-2c-3	*ITrd1c2	*	*ITrd1c2	*	*	*
*k[b-e-a-]	*	*k[a-e-b-]	*k[a-e-b-]	*	*k[b-e-a-]	*	*k[b-e-a-]	*k[b-a-e-]	*	*k[b-e-a-]	*	*k[a-e-b-]	*	*k[e-a-b-]	*	*k[b-e-a-]	*k[b-e-a-]	*k[b-e-a-]	*	*k[b-e-a-]	*k[b-e-a-]	*k[b-e-a-]	*
*E-:	*	*E-:	*E-:	*	*E-:	*	*E-:	*E-:	*	*E-:	*	*E-:	*	*E-:	*	*	*	*E-:	*	*E-:	*E-:	*E-:	*
*M4/4	*	*M4/4	*M4/4	*	*M4/4	*	*M4/4	*M4/4	*	*M4/4	*	*M4/4	*	*M4/4	*	*M4/4	*M4/4	*M4/4	*	*M4/4	*M4/4	*M4/4	*
*met(c)	*	*met(c)	*met(c)	*	*met(c)	*	*met(c)	*met(c)	*	*met(c)	*	*met(c)	*	*met(c)	*	*met(c)	*met(c)	*met(c)	*	*met(c)	*met(c)	*met(c)	*
=1	=1	=1	=1	=1	=1	=1	=1	=1	=1	=1	=1	=1	=1	=1	=1	=1	=1	=1	=1	=1	=1	=1	=1
!	!	!LO:TX:i:a:t=3	!	!	!	!	!	!	!	!	!	!	!	!	!	!	!	!	!	!	!	!	!
!	!	!	!LO:TX:i:a:t=3	!	!	!	!LO:SIC:s:o=:v:4\center\global:problem	!	!	!	!	!	!	!	!	!LO:TX:i:a:t=3	!LO:TX:i:a:t=2	!LO:TX:i:a:t=1.	!	!	!LO:TX:i:a:t=3	!LO:TX:i:a:t=3	!
!LO:TX:rj:i:b:t=Osanna	!	!LO:TX:rj:i:b:t=Osanna	!LO:TX:rj:i:b:t=Osanna	!	!LO:TX:rj:i:b:t=Osanna	!	!LO:TX:rj:i:b:t=Osanna	!	!	!	!	!LO:TX:i:a:t=1.	!	!	!	!LO:TX:rj:i:b:t=Osanna	!LO:TX:rj:i:b:t=Osanna	!LO:TX:rj:i:b:t=Osanna	!	!LO:TX:rj:i:b:t=Osanna	!LO:TX:rj:i:b:t=Osanna	!LO:TX:rj:i:b:t=Osanna	!
!LO:TX:rj:i:a:t=Allegretto	!	!LO:TX:rj:i:a:t=Allegretto	!LO:TX:rj:i:a:t=Allegretto	!	!LO:TX:rj:i:a:t=Allegretto	!	!LO:TX:rj:i:a:t=Allegretto	!LO:TX:i:a:t=3.	!	!LO:TX:i:a:t=2.	!	!LO:TX:rj:i:a:t=Allegretto	!	!LO:TX:rj:i:a:t=Allegretto	!	!LO:TX:rj:i:a:t=Allegretto	!LO:TX:rj:i:a:t=Allegrotto	!LO:TX:rj:i:a:t=Allegretto	!	!LO:TX:rj:i:a:t=Allegretto	!LO:TX:i:a:t=Allegretto	!LO:TX:rj:i:a:t=Allegretto	!
4BB-/	.	0r	0r	.	4d/ 4b-/	.	4d/ 4b-/	0r	.	0r	.	1r	.	4r	.	0r	0r	1r	.	4r	0r	0r	.
!	!	!	!	!	!	!	!	!	!	!	!	!	!	!LO:SIC:s:o=:v:4\center\global:problem	!	!	!	!	!	!	!	!	!
4r	.	.	.	.	4r	.	4b-\	.	.	.	.	.	.	4b-\	O-	.	.	.	.	4b-\	.	.	.
!	!	!	!	!	!	!	!LO:SIC:o:s=:v:8\cente\global:problem	!	!	!	!	!	!	!	!	!	!	!	!	!	!	!	!
2r	.	.	.	.	2r	.	8cc\L	.	.	.	.	.	.	8cc\	-san-	.	.	.	.	8cc\L	.	.	.
.	.	.	.	.	.	.	8b-\	.	.	.	.	.	.	8b-\	-na	.	.	.	.	8b-\	.	.	.
.	.	.	.	.	.	.	8cc\	.	.	.	.	.	.	8cc\	in	.	.	.	.	8cc\	.	.	.
.	.	.	.	.	.	.	8dd\J	.	.	.	.	.	.	8dd\	ex-	.	.	.	.	8dd\J	.	.	.
=2	=2	=2	=2	=2	=2	=2	=2	=2	=2	=2	=2	=2	=2	=2	=2	=2	=2	=2	=2	=2	=2	=2	=2
1r	.	.	.	.	4r	.	4ee-\	.	.	.	.	4r	.	4ee-\	-cel-	.	.	4r	.	4ee-\	.	.	.
!	!	!	!	!	!	!	!	!	!	!	!	!LO:SIC:s:o=:v:4\center\global:problem	!	!	!	!	!	!	!	!	!	!	!
.	.	.	.	.	4e-/	.	4b-\	.	.	.	.	4e-\	O-	4b-\	-sis	.	.	4e-/	.	4b-\	.	.	.
.	.	.	.	.	8g/L	.	8r	.	.	.	.	8g\	-san-	8r	.	.	.	8g/L	.	8r	.	.	.
.	.	.	.	.	8f/	.	8an/L	.	.	.	.	8f\	-na	8an\	O-	.	.	8f/	.	8a\L	.	.	.
.	.	.	.	.	8g/	.	8b-/	.	.	.	.	8g\	in	8b-\	-san-	.	.	8g/	.	8b-\	.	.	.
.	.	.	.	.	8an/J	.	8cc/J	.	.	.	.	8an\	ex-	8cc\	-na	.	.	8a/J	.	8cc\J	.	.	.
=3	=3	=3	=3	=3	=3	=3	=3	=3	=3	=3	=3	=3	=3	=3	=3	=3	=3	=3	=3	=3	=3	=3	=3
!	!	!	!	!	!	!	!	!	!	!	!	!LO:SIC:s=:v:cel-	!	!	!	!	!	!LO:SIC:s:o=:v:4\center\global:problem	!	!	!	!	!
4r	.	1r	1r	.	4b-/	.	8dd\L	1r	.	4r	.	4b-\	-cael-	8dd\L	in	1r	4r	4b-\	.	8dd\L	1r	1r	.
.	.	.	.	.	.	.	8ee-\	.	.	.	.	.	.	8ee-\J	.	.	.	.	.	8ee-\	.	.	.
*clefC4	*	*	*	*	*	*	*	*	*	*	*	*	*	*	*	*	*	*	*	*	*	*	*
!LO:SIC:s:o=:v:4\center\global:problem	!	!	!	!	!	!	!	!	!	!LO:SIC:s:o=:v:4\center\global:problem	!	!	!	!	!	!	!LO:SIC:s:o=:v:4\center\global:problem	!	!	!LO:TX:t=P:problem:mixed beam	!	!	!
4B-\	.	.	.	.	4f/	.	8ff\	.	.	4B-\	O-	4f\	-sis	8ff\L	ex-	.	4bb-\	4f/	.	8ff\	.	.	.
.	.	.	.	.	.	.	8b-\J	.	.	.	.	.	.	8b-\J	.	.	.	.	.	8b-/J	.	.	.
!LO:SIC:o:s=:v:8\cente\global:problem	!	!	!	!	!	!	!	!	!	!	!	!	!	!	!	!	!LO:SIC:o:s=:v:8\cente\global:problem	!	!	!	!	!	!
8c\L	.	.	.	.	8r	.	4.a-X/	.	.	8c\	-san-	8r	.	4.a-X\	-cel-	.	8ccc\L	8r	.	4.a-\	.	.	.
8B-\	.	.	.	.	8d/L	.	.	.	.	8B-\	-na	8d\	o-	.	.	.	8bb-\	8d/L	.	.	.	.	.
8c\	.	.	.	.	8e-/	.	.	.	.	8c\	in	8e-\	-san-	.	.	.	8ccc\	8e-/	.	.	.	.	.
8d\J	.	.	.	.	8f/J	.	8b-/	.	.	8d\	ex-	8f\	-na	8b-\	.	.	8ddd\J	8f/J	.	8b-\	.	.	.
!	!	!	!	!	!	!	!LO:LB:g=original	!	!	!	!	!	!	!	!	!	!	!	!	!	!	!	!
=4	=4	=4	=4	=4	=4	=4	=4	=4	=4	=4	=4	=4	=4	=4	=4	=4	=4	=4	=4	=4	=4	=4	=4
!	!	!	!	!	!	!	!	!	!	!LO:SIC:s=:v:cel-	!	!	!	!	!	!	!	!	!	!	!	!	!
4e-\	.	4r	4r	.	8g/L	.	4g/	4r	.	4e-\	-cael-	(8g\L	in	4g/	-sis	4r	4eee-\	8g/L	.	4g/	4r	8r	.
.	.	.	.	.	8a-/	.	.	.	.	.	.	8a-\J)	.	.	.	.	.	8a-/	.	.	.	8r	.
*clefF4	*	*	*	*	*	*	*	*	*	*	*	*	*	*	*	*	*	*	*	*	*	*	*
!	!	!LO:SIC:s:o=:v:4\center\global:problem	!LO:SIC:s:o=:v:4\center\global:problem	!	!	!	!	!LO:SIC:s:o=:v:4\center\global:problem	!	!	!	!	!	!	!	!LO:SIC:s:o=:v:4\center\global:problem	!	!	!	!	!LO:SIC:s:o=:v:4\center\global:problem	!LO:SIC:s:o=:v:4\center\global:problem	!
4E-\	.	4e-\	4e-\	.	8b-/	.	4r	4E-\	O-	4B-\	-sis	(8b-\L	ex-	4r	.	4ee-\	4bb-\	8b-/	.	4r	4ee-\	4ee-\	.
.	.	.	.	.	8g/J	.	.	.	.	.	.	8g\J)	.	.	.	.	.	8g/J	.	.	.	.	.
!	!	!	!	!	!	!	!	!	!	!	!	!LO:LB:g=original	!	!	!	!	!	!	!	!	!	!	!
!	!	!LO:SIC:o:s=:v:8\cente\global:problem	!LO:SIC:o:s=:v:8\cente\global:problem	!	!	!	!	!	!	!	!	!	!	!	!	!LO:SIC:o:s=:v:8\cente\global:problem	!	!	!	!	!LO:SIC:o:s=:v:8\cente\global:problem	!LO:SIC:o:s=:v:8\cente\global:problem	!
8G\L	.	8g\L	8g\L	.	4.e-/	.	2r	8G\	-san-	8r	.	4.e-\	-cel-	2r	.	8gg\L	2r	4.e-/	.	2r	8gg\L	8gg\L	.
8F\	.	8f\	8f\	.	.	.	.	8F\	-na	8An\	O-	.	.	.	.	8ff\	.	.	.	.	8ff\	8ff\	.
!	!	!	!	!	!	!	!	!	!	!LO:LB:g=original	!	!	!	!	!	!	!	!	!	!	!	!	!
8G\	.	8g\	8g\	.	.	.	.	8G\	in	8B-\	-san-	.	.	.	.	8gg\	.	.	.	.	8gg\	8gg\	.
8An\J	.	8an\J	8an\J	.	8f/	.	.	8An\	ex-	8c\	-na	8f\	.	.	.	8aaX\J	.	8f/	.	.	8aan\J	8aan\J	.
!	!	!	!	!	!LO:LB:g=original	!	!	!	!	!	!	!	!	!LO:LB:g=original	!	!	!	!	!	!	!	!	!
=5	=5	=5	=5	=5	=5	=5	=5	=5	=5	=5	=5	=5	=5	=5	=5	=5	=5	=5	=5	=5	=5	=5	=5
!	!	!	!	!	!	!	!	!LO:SIC:s=:v:cel-	!	!	!	!	!	!	!	!	!	!	!	!	!	!	!
8B-\L	.	4b-\	4b-\	.	4d/	.	4r	4B-\	-cael-	8d\L	in	4d\	-sis	4r	.	4bb-\	4r	4d/	.	4r	4bb-\	4bb-\	.
8B-\	.	.	.	.	.	.	.	.	.	8c\J	.	.	.	.	.	.	.	.	.	.	.	.	.
8G\	.	4g\	4g\	.	4e-/	.	4b-\	4G\	.	4B-\	ex-	4e-\	o-	4b-\	O-	4r	4bb-\	4e-/	.	4b-\	4gg\	4gg\	.
8G\J	.	.	.	.	.	.	.	.	.	.	.	.	.	.	.	.	.	.	.	.	.	.	.
*	*	*	*	*	*	*	*	*	*	*2\right	*	*	*	*	*	*	*	*	*	*	*	*	*
!	!	!	!	!	!	!	!	!	!	!LO:SIC:s=:v:cel-	!	!	!	!	!	!	!	!	!	!	!	!	!
8A-X\L	.	4a-\	4a-\	.	8e-/L	.	8cc\L	4A-X\	.	2A-\	-cael-	8e-\	-san-	8cc\	-san-	8r	8ccc\L	8e-/L	.	8cc\L	4aa-\	4aa-\	.
8A-\	.	.	.	.	8d/	.	8b-\	.	.	.	.	8d\	-na	8b-\	-na	8ee-\L	8bb-\	8d/	.	8b-\	.	.	.
8F\	.	4f\	4f\	.	8e-/	.	8cc\	4F\	.	.	.	8e-\	in	8cc\	in	8aa-\	8ccc\	8e-/	.	8cc\	4ff\	4ff\	.
8F\J	.	.	.	.	8f/J	.	8dd\J	.	.	.	.	8f\	ex-	8dd\	ex-	8ee-\J	8ddd\J	8f/J	.	8dd\J	.	.	.
!LO:LB:g=original	!	!	!	!	!	!	!	!	!	!	!	!	!	!	!	!	!	!	!	!	!	!	!
=6	=6	=6	=6	=6	=6	=6	=6	=6	=6	=6	=6	=6	=6	=6	=6	=6	=6	=6	=6	=6	=6	=6	=6
!LO:SIC:s:o=:v:16\center\global	!	!	!	!	!	!	!	!	!	!	!	!LO:SIC:s=:v:cel-	!	!	!	!	!	!	!	!	!	!	!
16E-\LL	.	4e-\	4e-\	.	4g/	.	4ee-\	4E-\	-sis	4G/	-sis	4g\	-cael-	4ee-\	-cel-	4gg\	4eee-\	4g/	.	4ee-\	4ee-\	4ee-\	.
16E-\	.	.	.	.	.	.	.	.	.	.	.	.	.	.	.	.	.	.	.	.	.	.	.
16E-\	.	.	.	.	.	.	.	.	.	.	.	.	.	.	.	.	.	.	.	.	.	.	.
16E-\JJ	.	.	.	.	.	.	.	.	.	.	.	.	.	.	.	.	.	.	.	.	.	.	.
16E-\LL	.	4r	4r	.	4r	.	4b-\	4E-\	o-	8r	.	8g\	-sis	8b-\	-sis,	8r	4bb-\	8r	.	8b-/L	4r	4r	.
16E-\	.	.	.	.	.	.	.	.	.	.	.	.	.	.	.	.	.	.	.	.	.	.	.
!	!	!	!	!	!	!	!	!	!	!	!	!	!	!	!	!	!	!LO:SIC:o:s=:v:8\cente\global:problem	!	!	!	!	!
16E-\	.	.	.	.	.	.	.	.	.	8B-\	O-	8e-\	o-	8g\	o-	8gg\	.	8b-\	.	8g/J	.	.	.
16E-\JJ	.	.	.	.	.	.	.	.	.	.	.	.	.	.	.	.	.	.	.	.	.	.	.
!	!	!	!	!	!	!	!	!	!	!	!	!	!	!	!	!	!	!LO:LB:g=original	!	!	!	!	!
*2\right	*	*	*	*	*	*	*	*	*	*	*	*	*	*	*	*	*	*	*	*	*	*	*
*tremolo	*	*	*	*	*	*	*	*2\right	*	*	*	*	*	*	*	*	*	*	*	*	*	*	*
16E-\LL	.	8r	8r	.	8r	.	8r	2E-\	-san-	8G/	-san-	8e-\	-san-	8cc\	-san-	8aa-\L	8ccc\L	8a-/L	.	8cc/L	8r	8r	.
16E-\	.	.	.	.	.	.	.	.	.	.	.	.	.	.	.	.	.	.	.	.	.	.	.
!	!	!	!	!	!	!	!	!	!	!	!	!	!	!	!	!	!	!LO:TX:i:a:t=a	!	!	!	!	!
16E-\	.	8g\L	8b-\L	.	8g/L	.	8b-\L	.	.	8G/	-na	8e-\	-na,	8b-\	-na	8gg\J	8bb-\J	8g/J	.	8b-/J	8gg\L	8bb-\L	.
16E-\	.	.	.	.	.	.	.	.	.	.	.	.	.	.	.	.	.	.	.	.	.	.	.
16E-\	.	8a-\	8cc\	.	8a-/	.	8cc\	.	.	8r	.	8r	.	8r	.	8r	8r	8r	.	8r	8aa-\	8ccc\	.
16E-\	.	.	.	.	.	.	.	.	.	.	.	.	.	.	.	.	.	.	.	.	.	.	.
16E-\	.	8g\J	8b-\J	.	8g/J	.	8b-\J	.	.	8G/	o-	8e-\	O-	8b-\	o-	8gg\	8bb-\	8g/	.	8b-\	8gg\J	8bb-\J	.
16E-\JJ	.	.	.	.	.	.	.	.	.	.	.	.	.	.	.	.	.	.	.	.	.	.	.
!	!	!	!	!	!	!	!	!	!	!	!	!	!	!	!	!	!LO:LB:g=original	!	!	!	!	!LO:LB:g=original	!
=7	=7	=7	=7	=7	=7	=7	=7	=7	=7	=7	=7	=7	=7	=7	=7	=7	=7	=7	=7	=7	=7	=7	=7
!	!LO:DY:b:t=po	!	!	!	!	!	!	!	!	!	!	!	!	!	!	!	!	!	!	!	!	!	!
16E-\LL	p	4r	4r	.	4r	.	4r	4E-\	-na	8A-/	-san-	8e-\	-san-	8cc\	-san-	8aa-\L	8ccc\L	8a-/L	.	8b-\L	4r	4.gg\	.
16E-\	.	.	.	.	.	.	.	.	.	.	.	.	.	.	.	.	.	.	.	.	.	.	.
16E-\	.	.	.	.	.	.	.	.	.	8G/	-na	8e-\	-na	8b-\	-na,	8gg\J	8bb-\J	8g/J	.	8a-\J	.	.	.
16E-\	.	.	.	.	.	.	.	.	.	.	.	.	.	.	.	.	.	.	.	.	.	.	.
!	!	!	!	!	!	!LO:DY:b:t=po&colon;	!	!	!	!	!	!	!	!	!	!	!	!	!	!	!	!	!
16E-\	.	4.e-\	4.g\	.	4.e-/	p	4.g/	4r	.	4r	.	4r	.	4g/	o-	4r	4r	4.e-/	.	4.gg\	4.ee-\	.	.
16E-\	.	.	.	.	.	.	.	.	.	.	.	.	.	.	.	.	.	.	.	.	.	.	.
!	!	!	!	!	!	!	!	!	!	!	!	!	!	!	!	!	!	!	!	!	!	!LO:SIC:s:o=:v:16\center\global	!
16E-\	.	.	.	.	.	.	.	.	.	.	.	.	.	.	.	.	.	.	.	.	.	16ff\LL	.
16E-\JJ	.	.	.	.	.	.	.	.	.	.	.	.	.	.	.	.	.	.	.	.	.	16gg\JJ	.
*Xtremolo	*	*	*	*	*	*	*	*	*	*	*	*	*	*	*	*	*	*	*	*	*	*	*
16B-\LL	.	.	.	.	.	.	.	2r	.	2r	.	2r	.	8g/	-san-	2r	2r	.	.	.	.	8aa-\L	.
16B-\	.	.	.	.	.	.	.	.	.	.	.	.	.	.	.	.	.	.	.	.	.	.	.
!	!	!LO:SIC:s:o=:v:16\center\global	!LO:SIC:s:o=:v:16\center\global	!	!	!	!	!	!	!	!	!	!	!	!	!	!	!	!	!LO:SIC:s:o=:v:16\center\global	!LO:SIC:s:o=:v:16\center\global	!	!
16B-\	.	16d\LL	16f\LL	.	16d/LL	.	16f/LL	.	.	.	.	.	.	16f/LL	-na	.	.	(16d/LL	.	16ff\LL	16dd\LL	8ff\J	.
16B-\JJ	.	16e-\JJ	16g\JJ	.	16e-/JJ	.	16g/JJ	.	.	.	.	.	.	16g/JJ	.	.	.	16e-/JJ	.	16gg\JJ	16ee-\JJ	.	.
16BB-/LL	.	8f\L	8a-\L	.	8f/L	.	8a-/L	.	.	.	.	.	.	8a-/	in	.	.	8f/L)	.	8aa-\L	8ff\L	4r	.
16BB-/	.	.	.	.	.	.	.	.	.	.	.	.	.	.	.	.	.	.	.	.	.	.	.
16BB-/	.	8d\J	8f\J	.	8d/J	.	8f/J	.	.	.	.	.	.	8f/	ex-	.	.	8d/J	.	8ff\J	8dd\J	.	.
16BB-/JJ	.	.	.	.	.	.	.	.	.	.	.	.	.	.	.	.	.	.	.	.	.	.	.
!	!	!	!	!	!	!	!	!	!	!LO:LB:g=original	!	!	!	!LO:LB:g=original	!	!LO:LB:g=original	!	!	!	!LO:LB:g=original	!LO:LB:g=original	!	!
=8	=8	=8	=8	=8	=8	=8	=8	=8	=8	=8	=8	=8	=8	=8	=8	=8	=8	=8	=8	=8	=8	=8	=8
!	!	!	!	!	!	!	!	!LO:TX:i:a:t=Solo	!	!LO:TX:i:a:t=Solo	!	!	!	!	!	!	!LO:TX:i:a:t=1.	!LO:TX:t=P:problem:mixed beam	!	!	!	!	!
16EE-/LL	.	4e-\	8g\L	.	8e-/L	.	8g/L	4r	.	4r	.	1r	.	8g/	-cel-	1r	1r	8e-/L	.	8gg\L	4ee-\	8gg\L	.
16GG/	.	.	.	.	.	.	.	.	.	.	.	.	.	.	.	.	.	.	.	.	.	.	.
16BB-/	.	.	8e-\J	.	8g/J	.	8e-/J	.	.	.	.	.	.	8e-/	-sis	.	.	8b-\J	.	8ee-\J	.	8ee-\J	.
16E-/JJ	.	.	.	.	.	.	.	.	.	.	.	.	.	.	.	.	.	.	.	.	.	.	.
!	!	!	!	!	!LO:SIC:s:o=:v:4\center\global:problem	!	!	!	!	!	!	!	!	!	!	!	!	!	!	!	!	!	!
16BB-\LL	.	4r	4r	.	4.b-\	.	4.dd\	4B-\	o-	4d\	O-	.	.	4r	.	.	.	4.b-\	.	4.dd\	4r	4r	.
16D\	.	.	.	.	.	.	.	.	.	.	.	.	.	.	.	.	.	.	.	.	.	.	.
16F\	.	.	.	.	.	.	.	.	.	.	.	.	.	.	.	.	.	.	.	.	.	.	.
16B-\JJ	.	.	.	.	.	.	.	.	.	.	.	.	.	.	.	.	.	.	.	.	.	.	.
16F\LL	.	2r	2r	.	.	.	.	8B-\	-san-	8d\	-san-	.	.	2r	.	.	.	.	.	.	2r	2r	.
16F\	.	.	.	.	.	.	.	.	.	.	.	.	.	.	.	.	.	.	.	.	.	.	.
!	!	!	!	!	!LO:SIC:s:o=:v:16\center\global	!	!LO:SIC:s:o=:v:16\center\global	!	!	!	!	!	!	!	!	!	!	!LO:SIC:s:o=:v:16\center\global:problem	!	!	!	!	!
16F\	.	.	.	.	16an\LL	.	16cc\LL	16An\LL	-na	16c\LL	-na	.	.	.	.	.	.	16an\LL	.	16cc\LL	.	.	.
!	!	!	!	!	!	!	!	!	!	!	!	!	!	!	!	!	!	!LO:SIC:s:o=:v:16\center\global:problem	!	!	!	!	!
16F\JJ	.	.	.	.	16b-\JJ	.	16dd\JJ	16B-\JJ	.	16d\JJ	.	.	.	.	.	.	.	16b-\JJ	.	16dd\JJ	.	.	.
16FF/LL	.	.	.	.	8cc/L	.	8ee-\L	8c\	in	8e-\	in	.	.	.	.	.	.	8cc\L	.	8ee-\L	.	.	.
16FF/	.	.	.	.	.	.	.	.	.	.	.	.	.	.	.	.	.	.	.	.	.	.	.
16FF/	.	.	.	.	8an/J	.	8cc\J	8An\	ex-	8c\	ex-	.	.	.	.	.	.	8an\J	.	8cc\J	.	.	.
16FF/JJ	.	.	.	.	.	.	.	.	.	.	.	.	.	.	.	.	.	.	.	.	.	.	.
!	!	!LO:LB:g=original	!LO:LB:g=original	!	!LO:LB:g=original	!	!LO:LB:g=original	!	!	!	!	!LO:LB:g=original	!	!	!	!	!	!	!	!	!	!	!
=9	=9	=9	=9	=9	=9	=9	=9	=9	=9	=9	=9	=9	=9	=9	=9	=9	=9	=9	=9	=9	=9	=9	=9
!	!LO:DY:b:t=f&colon;	!	!	!	!	!	!	!LO:SIC:s=:v:cel-	!	!LO:SIC:s=:v:cel-	!	!	!	!	!	!	!	!	!	!	!	!	!
16BB-\LL	f	16r	16r	.	8b-/L	.	8dd\L	8B-\	-cael-	8d\	cael-	2r	.	4r	.	4r	2r	4b-\	.	8dd\L	16r	16r	.
16B-\	.	16b-\LL	16b-\LL	.	.	.	.	.	.	.	.	.	.	.	.	.	.	.	.	.	16bb-\LL	16bb-\LL	.
16A-\	.	16a-\	16a-\	.	8f/J	.	8b-\J	8BB-/	-sis	8B-\	-sis	.	.	.	.	.	.	.	.	8b-\J	16aa-\	16aa-\	.
16B-\JJ	.	16b-\JJ	16b-\JJ	.	.	.	.	.	.	.	.	.	.	.	.	.	.	.	.	.	16bb-\JJ	16bb-\JJ	.
*	*	*	*	*	*	*	*	*	*	*	*	*	*	*2\right	*	*2\right	*	*	*	*2\right	*	*	*
!	!	!	!	!	!	!LO:DY:b:t=fr.	!	!	!	!	!	!	!	!	!	!	!	!	!	!	!	!	!
8G\L	.	8g\L	8g\L	.	4b-\	f	16r	8r	.	4r	.	.	.	2b-\	O-	2bb-\	.	4r	.	2bb-\	8gg\L	8gg\L	.
.	.	.	.	.	.	.	16ee-\LL	.	.	.	.	.	.	.	.	.	.	.	.	.	.	.	.
!	!	!	!	!	!	!	!	!LO:TX:i:a:t=Tutti	!	!	!	!	!	!	!	!	!	!	!	!	!	!	!
8E-\J	.	8e-\J	8e-\J	.	.	.	16dd-X\	8E-\	O-	.	.	.	.	.	.	.	.	.	.	.	8ee-\J	8ee-\J	.
.	.	.	.	.	.	.	16ee-\JJ	.	.	.	.	.	.	.	.	.	.	.	.	.	.	.	.
*	*	*	*	*	*	*	*	*	*	*	*	*	*	*	*	*	*2\right	*2\right	*	*	*	*	*
!LO:TX:t=P:problem:mixed beam	!	!LO:TX:t=P:problem:mixed beam	!LO:TX:t=P:problem:mixed beam	!	!	!	!	!	!	!LO:TX:i:a:t=Tutti	!	!	!	!	!	!	!	!	!LO:DY:b:t=for	!	!	!	!
8A-\L	.	8a-\L	8a-\L	.	16b-\LL	.	(4cc\	2A-\	-san-	2c\	O-	4r	.	.	.	.	2ccc\	2cc\	f	.	8aa-\L	8aa-\L	.
.	.	.	.	.	16b-\	.	.	.	.	.	.	.	.	.	.	.	.	.	.	.	.	.	.
8AA-/	.	8A-/	8A-/	.	16cc\	.	.	.	.	.	.	.	.	.	.	.	.	.	.	.	8aa-\	8aa-\	.
.	.	.	.	.	16b-\JJ	.	.	.	.	.	.	.	.	.	.	.	.	.	.	.	.	.	.
8C/	.	8c/	8c/	.	(4a-/	.	16cc\LL	.	.	.	.	4e-\	O-	[<4a-\	-san-	[4aa-\	.	.	.	[<4aa-\	8ccc\	8ccc\	.
.	.	.	.	.	.	.	16cc\)	.	.	.	.	.	.	.	.	.	.	.	.	.	.	.	.
8AA-/J	.	8A-/J	8A-/J	.	.	.	16dd-X\	.	.	.	.	.	.	.	.	.	.	.	.	.	8aa-\J	8aa-\J	.
.	.	.	.	.	.	.	16cc\JJ	.	.	.	.	.	.	.	.	.	.	.	.	.	.	.	.
!LO:PB:g=original	!	!	!	!	!	!	!	!	!	!	!	!	!	!	!	!	!	!	!	!	!	!	!
=10	=10	=10	=10	=10	=10	=10	=10	=10	=10	=10	=10	=10	=10	=10	=10	=10	=10	=10	=10	=10	=10	=10	=10
*	*	*	*	*	*	*	*	*	*	*	*	*2\right	*	*	*	*	*	*	*	*	*	*	*
!LO:TX:t=P:problem:mixed beam	!	!LO:TX:t=P:problem:mixed beam	!LO:TX:t=P:problem:mixed beam	!	!	!	!	!	!	!	!	!	!	!	!	!	!	!	!	!	!	!	!
8E-\L	.	8e-\L	8e-\L	.	16a-/LL	.	(4b-\	2E-\	-na	(2B-\	-san-	2e-\	-san-	4a-\]	.	4aa-\]	2bb-\	2b-\	.	4aa-\]	8ee-\L	8ee-\L	.
.	.	.	.	.	16a-/)	.	.	.	.	.	.	.	.	.	.	.	.	.	.	.	.	.	.
8EE-/	.	8E-/	8E-/	.	16b-/	.	.	.	.	.	.	.	.	.	.	.	.	.	.	.	8ee-\	8ee-\	.
.	.	.	.	.	16a-/JJ	.	.	.	.	.	.	.	.	.	.	.	.	.	.	.	.	.	.
8GG/	.	8G/	8G/	.	(4g/	.	16b-\LL	.	.	.	.	.	.	2g\	.	2gg\	.	.	.	2gg\	8gg\	8gg\	.
.	.	.	.	.	.	.	16b-\	.	.	.	.	.	.	.	.	.	.	.	.	.	.	.	.
8EE-/J	.	8E-/J	8E-/J	.	.	.	16cc\)	.	.	.	.	.	.	.	.	.	.	.	.	.	8ee-\J	8ee-\J	.
.	.	.	.	.	.	.	16b-\JJ	.	.	.	.	.	.	.	.	.	.	.	.	.	.	.	.
!LO:TX:t=P:problem:mixed beam	!	!LO:TX:t=P:problem:mixed beam	!LO:TX:t=P:problem:mixed beam	!	!	!	!	!	!	!	!	!	!	!	!	!	!	!	!	!	!	!	!
8FF/L	.	8F/L	8F/L	.	16g/LL	.	(4a-/	4F\	in	2A-\)	.	4c\	.	.	.	.	2aa-\	2a-\	.	.	8ff\L	8ff\L	.
.	.	.	.	.	16g/)	.	.	.	.	.	.	.	.	.	.	.	.	.	.	.	.	.	.
16F\/L	.	16f\L	16f\L	.	16a-/	.	.	.	.	.	.	.	.	.	.	.	.	.	.	.	16ff\L	16fff\L	.
16E-\JJ	.	16e-\JJ	16e-\JJ	.	16g/JJ	.	.	.	.	.	.	.	.	.	.	.	.	.	.	.	16ee-\JJ	16eee-\JJ	.
8D/L	.	8d\L	8d\L	.	16f/LL	.	16a-/LL	4BB-/	ex-	.	.	4d\	.	4f\	.	4ff\	.	.	.	4ff\	8dd\L	8ddd\L	.
.	.	.	.	.	16f/	.	16a-/	.	.	.	.	.	.	.	.	.	.	.	.	.	.	.	.
8BB-/J	.	8B-\J	8B-\J	.	16g/	.	16b-/)	.	.	.	.	.	.	.	.	.	.	.	.	.	8b-\J	8bb-\J	.
.	.	.	.	.	16f/JJ	.	16a-/JJ	.	.	.	.	.	.	.	.	.	.	.	.	.	.	.	.
!	!	!	!	!	!	!	!	!LO:LB:g=original	!	!LO:PB:g=original	!	!	!	!	!	!	!	!	!	!	!	!LO:PB:g=original	!
=11	=11	=11	=11	=11	=11	=11	=11	=11	=11	=11	=11	=11	=11	=11	=11	=11	=11	=11	=11	=11	=11	=11	=11
8C/L	.	8c/L	8c/L	.	4e-/	.	8g/L	8C/	-cel-	8G/	-na	8e-\	-na	8e-/	-na	4ee-\	8gg\L	4ee-\	.	8ee-\L	8cc\L	8ccc\L	.
8AA-/	.	8A-/	8A-/	.	.	.	8cc/	8AA-/	.	8A-/	in	8e-\	in	8cc\	in	.	8ccc\	.	.	8ccc\	8aa-\	8aa-\	.
8GG/	.	8G/	8G/	.	8r	.	8b-/	8GG/L	.	8B-\L	ex-	8e-\L	ex-	8b-\L	ex-	8r	8bb-\	8r	.	8bb-\	8gg\	8gg\	.
8AA-/J	.	8A-/J	8A-/J	.	8f/	.	8a-/J	8AA-/J	.	8c\J	.	8f\J	.	8a-\J	.	8ff\	8aa-\J	8ff\	.	8aa-\J	8aa-\J	8aa-\J	.
4BB-/	.	4B-/	4B-/	.	4e-/	.	4g/	2BB-/	.	2B-\	-cel-	(4e-\	-cel-	(4g/	-cel-	4ee-\	4gg\	4ee-\	.	4gg\	4bb-\	4bb-\	.
4BBB-/	.	4B-/	4B-/	.	4d/	.	4f/	.	.	.	.	4d\)	.	4f/)	.	8.b-/L	4ff\	4dd\	.	4ff\	4bb-\	4bb-\	.
.	.	.	.	.	.	.	.	.	.	.	.	.	.	.	.	16b-/Jk	.	.	.	.	.	.	.
!	!	!	!	!	!LO:TX:i:b:t=Vertat(ur) Cito	!	!LO:TX:i:b:t=Cito Vertat(ur)	!	!	!	!	!	!	!	!	!	!	!	!	!	!	!	!
!	!	!	!	!	!LO:PB:g=original	!	!LO:PB:g=original	!	!	!	!	!	!	!	!	!	!	!LO:LB:g=original	!	!	!	!	!
=12	=12	=12	=12	=12	=12	=12	=12	=12	=12	=12	=12	=12	=12	=12	=12	=12	=12	=12	=12	=12	=12	=12	=12
!	!LO:DY:b:t=po&colon;	!	!	!	!	!	!	!	!	!	!	!	!	!	!	!	!	!	!	!	!	!	!
16E-\LL	p	4E-/	4E-/	.	4e-/	.	4e-/	4EE-/	-sis	4G/	-sis	4e-\	-sis	4e-/	-sis	4g/	4ee-\	4ee-\	.	4ee-\	4eee-\	4eee-\	.
16E-\	.	.	.	.	.	.	.	.	.	.	.	.	.	.	.	.	.	.	.	.	.	.	.
16E-\	.	.	.	.	.	.	.	.	.	.	.	.	.	.	.	.	.	.	.	.	.	.	.
16E-\JJ	.	.	.	.	.	.	.	.	.	.	.	.	.	.	.	.	.	.	.	.	.	.	.
16E-\LL	.	4r	4r	.	8r	.	8r	4r	.	4r	.	4r	.	8r	.	4r	4r	4r	.	4r	4r	4r	.
16E-\	.	.	.	.	.	.	.	.	.	.	.	.	.	.	.	.	.	.	.	.	.	.	.
!	!	!	!	!	!	!LO:DY:b:t=po&colon;	!	!	!	!	!	!	!	!	!	!	!	!	!	!	!	!	!
16E-\	.	.	.	.	8g/	p	8b-\	.	.	.	.	.	.	8b-\	o-	.	.	.	.	.	.	.	.
16E-\JJ	.	.	.	.	.	.	.	.	.	.	.	.	.	.	.	.	.	.	.	.	.	.	.
*tremolo	*	*	*	*	*	*	*	*	*	*	*	*	*	*	*	*	*	*	*	*	*	*	*
16E-\LLI	.	2r	2r	.	8a-/L	.	8cc\L	2r	.	2r	.	2r	.	8cc\	-San-	2r	2r	2r	.	2r	2r	2r	.
16E-\	.	.	.	.	.	.	.	.	.	.	.	.	.	.	.	.	.	.	.	.	.	.	.
16E-\	.	.	.	.	(8g/	.	8b-\	.	.	.	.	.	.	8b-\	-na	.	.	.	.	.	.	.	.
16E-\	.	.	.	.	.	.	.	.	.	.	.	.	.	.	.	.	.	.	.	.	.	.	.
16E-\	.	.	.	.	8a-/	.	8cc\	.	.	.	.	.	.	8cc\	in	.	.	.	.	.	.	.	.
16E-\	.	.	.	.	.	.	.	.	.	.	.	.	.	.	.	.	.	.	.	.	.	.	.
16E-\	.	.	.	.	8f/J)	.	8dd\J	.	.	.	.	.	.	8dd\	ex-	.	.	.	.	.	.	.	.
16E-\JJ	.	.	.	.	.	.	.	.	.	.	.	.	.	.	.	.	.	.	.	.	.	.	.
!	!	!	!	!	!	!	!	!	!	!	!	!	!	!	!	!	!	!	!	!LO:TX:i:b:t=Vertat(ur) Citissime	!	!	!
!	!	!	!	!	!	!	!	!	!	!	!	!	!	!LO:LB:g=original	!	!	!	!	!	!LO:PB:g=original	!LO:LB:g=original	!	!
=13	=13	=13	=13	=13	=13	=13	=13	=13	=13	=13	=13	=13	=13	=13	=13	=13	=13	=13	=13	=13	=13	=13	=13
!	!	!	!	!	!	!	!	!LO:TX:i:a:t=Solo	!	!	!	!	!	!	!	!	!LO:TX:i:a:t=1.	!	!	!	!	!	!
16E-\LL	.	4r	4r	.	4g/	.	4ee-\	4r	.	4r	.	1r	.	4ee-\	-cel-	1r	1r	4r	.	4r	4r	4r	.
16E-\	.	.	.	.	.	.	.	.	.	.	.	.	.	.	.	.	.	.	.	.	.	.	.
16E-\	.	.	.	.	.	.	.	.	.	.	.	.	.	.	.	.	.	.	.	.	.	.	.
16E-\	.	.	.	.	.	.	.	.	.	.	.	.	.	.	.	.	.	.	.	.	.	.	.
!	!	!	!	!LO:DY:b:t=po	!	!	!	!	!	!	!	!	!	!	!	!	!	!	!	!	!	!	!
16E-\	.	4g\	4b-\	p	4g/	.	4b-\	4G\	o-	4B-\	O-	.	.	4b-\	-sis	.	.	4g/	.	4b-\	4gg\	4bb-\	.
16E-\	.	.	.	.	.	.	.	.	.	.	.	.	.	.	.	.	.	.	.	.	.	.	.
16E-\	.	.	.	.	.	.	.	.	.	.	.	.	.	.	.	.	.	.	.	.	.	.	.
16E-\JJ	.	.	.	.	.	.	.	.	.	.	.	.	.	.	.	.	.	.	.	.	.	.	.
!	!	!	!	!	!	!	!	!	!	!	!	!	!	!	!	!	!	!	!	!	!	!	!LO:DY:b:t=po
16E-\LL	.	8a-\L	8cc\L	.	8a-/L	.	8cc\L	8A-\	-san-	8c\	-San-	.	.	2r	.	.	.	8a-/L	.	8cc\L	8aa-\L	8ccc\L	p
16E-\	.	.	.	.	.	.	.	.	.	.	.	.	.	.	.	.	.	.	.	.	.	.	.
16E-\	.	8g\	8b-\	.	8g/	.	8b-\	8G\	-na	8B-\	-na	.	.	.	.	.	.	8g/	.	8b-\	8gg\	8bb-\	.
16E-\	.	.	.	.	.	.	.	.	.	.	.	.	.	.	.	.	.	.	.	.	.	.	.
16E-\	.	8a-\	8cc\	.	8a-/	.	(8cc\	8A-\	in	8c\	in	.	.	.	.	.	.	8a-/	.	8cc\	8aa-\	8ccc\	.
16E-\	.	.	.	.	.	.	.	.	.	.	.	.	.	.	.	.	.	.	.	.	.	.	.
16E-\	.	8f\J	8dd\J	.	8f/J	.	8dd\J)	8F\	ex-	8d\	ex-	.	.	.	.	.	.	8f/J	.	8dd\J	8ff\J	8ddd\J	.
16E-\JJ	.	.	.	.	.	.	.	.	.	.	.	.	.	.	.	.	.	.	.	.	.	.	.
*Xtremolo	*	*	*	*	*	*	*	*	*	*	*	*	*	*	*	*	*	*	*	*	*	*	*
!	!	!LO:LB:g=original	!	!	!	!	!	!	!	!LO:LB:g=original	!	!	!	!	!	!	!	!	!	!	!	!	!
=14	=14	=14	=14	=14	=14	=14	=14	=14	=14	=14	=14	=14	=14	=14	=14	=14	=14	=14	=14	=14	=14	=14	=14
!LO:TX:t=P:problem:mixed beam	!	!	!	!	!	!	!	!	!	!	!	!	!	!	!	!	!	!	!	!	!	!	!
8E-\L	.	4g\	4ee-\	.	4g/	.	4ee-\	4G\	-cel-	8e-\L	-cel-	4r	.	4r	.	4r	4r	4g/	.	4ee-\	4gg\	4eee-\	.
8EE-/J	.	.	.	.	.	.	.	.	.	8B-\J	.	.	.	.	.	.	.	.	.	.	.	.	.
8r	.	8r	8b-\L	.	8r	.	8b-\L|	8E-\	-sis	8G/	-sis	8r	.	8r	.	8r	8r	8r	.	8b-\L	8r	8bb-\L	.
!	!LO:DY:b:t=f&colon;	!	!	!	!	!	!	!	!	!LO:SIC:s=:v:o-	!	!	!	!	!	!	!	!LO:SIC:s:o=:v: zbędna kreska taktowa	!	!	!	!	!
8D\	f	8d\	8d\J	.	8a-/	.	8cc\J|	8D\	o-	8F/	os-	8a-\	O-	8cc\	O-	8aa-\	8ccc\	8aa-\	.	8ccc\J	8dd\	8dd\J	.
!	!	!	!LO:LB:g=original	!	!	!	!	!	!	!	!	!	!	!	!	!	!	!	!	!	!	!	!
!	!	!	!	!LO:DY:b:t=for	!	!LO:DY:b:t=f&colon;	!	!	!	!	!	!	!	!	!	!	!	!	!	!	!	!	!
8E-\L	.	8e-\L	8e-\L	f	8g/L	f	8b-/L	8E-\	-san-	8G/	-san-	8g\	-san-	8b-\	-san-	8gg\L	8bb-\L	8gg\L	.	8bb-\L	8ee-\L	8ee-\L	.
8F\	.	8f\	8f\	.	8f/	.	8a-/	8F\	-na	8A-/	-na	8f\	-na	8a-\	-na	8ff\	8aa-\	8ff\	.	8aa-\	8ff\	8ff\	.
!	!	!	!	!	!	!	!	!	!	!	!	!LO:LB:g=original	!	!	!	!	!	!	!	!	!	!	!
8G\	.	8g\	8g\	.	8e-/	.	8g/	8G\	in	8B-\	in	8e-\	in	8g/	in	8ee-\	8gg\	8ee-\	.	8gg\	8gg\	8gg\	.
8A-\J	.	8a-\J	8a-\J	.	8f/J	.	8f/J	8A-\	ex-	8c\	ex-	8f\	ex-	8f/	ex-	8ff\J	8ff\J	8ff\J	.	8ff\J	8aa-\J	8aa-\J	.
!LO:LB:g=original	!	!	!	!	!	!	!	!LO:LB:g=original	!	!	!	!	!	!	!	!	!LO:LB:g=original	!	!	!	!	!	!
=15	=15	=15	=15	=15	=15	=15	=15	=15	=15	=15	=15	=15	=15	=15	=15	=15	=15	=15	=15	=15	=15	=15	=15
4B-\	.	4b-\	4b-\	.	4e-/	.	4g/	4B-\	-cel-	2B-\	-cel-	(4e-\	-cel-	(4g/	-cel-	4ee-\	4gg\	4ee-\	.	4gg\	4bb-\	4bb-\	.
4BB-/	.	4B-/	4B-/	.	4d/	.	4f/	4BB-/	.	.	.	4d\	.	4f/)	.	8.b-/L	4ff\	4dd\	.	4ff\	4bb-\	4bb-\	.
.	.	.	.	.	.	.	.	.	.	.	.	.	.	.	.	16b-/Jk	.	.	.	.	.	.	.
!	!LO:DY:b:t=po	!	!	!	!	!	!	!	!	!	!	!	!	!	!	!	!	!	!	!	!	!	!
16E-\LL	p	4E-/	4E-/	.	4e-/	.	4e-/	4E-\	-sis	4G/	-sis	4e-\)	-sis	4e-/	-sis	4g/	4ee-\	4ee-\	.	4ee-\	4ee-\	4eee-\	.
16E-\	.	.	.	.	.	.	.	.	.	.	.	.	.	.	.	.	.	.	.	.	.	.	.
16E-\	.	.	.	.	.	.	.	.	.	.	.	.	.	.	.	.	.	.	.	.	.	.	.
16E-\JJ	.	.	.	.	.	.	.	.	.	.	.	.	.	.	.	.	.	.	.	.	.	.	.
16E-\LL	.	8r	8r	.	8r	.	8r	4r	.	4r	.	4r	.	8r	.	4r	4r	8r	.	8r	8r	8r	.
16E-\	.	.	.	.	.	.	.	.	.	.	.	.	.	.	.	.	.	.	.	.	.	.	.
!	!	!	!	!	!	!LO:DY:b:t=po&colon;	!	!	!	!	!	!	!	!	!	!	!	!	!	!	!	!	!
16E-\	.	8g\	8b-\	.	8g/	p	8b-\	.	.	.	.	.	.	8b-\	O-	.	.	8g/	.	8b-\	8gg\	8bb-\	.
16E-\JJ	.	.	.	.	.	.	.	.	.	.	.	.	.	.	.	.	.	.	.	.	.	.	.
!	!	!	!	!	!LO:LB:g=original	!	!	!	!	!	!	!	!	!	!	!LO:LB:g=original	!	!	!	!	!	!LO:LB:g=original	!
=16	=16	=16	=16	=16	=16	=16	=16	=16	=16	=16	=16	=16	=16	=16	=16	=16	=16	=16	=16	=16	=16	=16	=16
!	!	!	!	!LO:DY:b:t=po&colon;	!	!	!	!	!	!	!	!	!	!	!	!	!	!	!	!	!	!	!LO:DY:b:t=po
16E-\LL	.	8a-\L	8cc\L	p	8a-/L	.	8cc\L	2r	.	2r	.	2r	.	8cc\	-san-	2r	2r	8a-/L	.	8cc\L	8aa-\L	8ccc\L	p
16E-\	.	.	.	.	.	.	.	.	.	.	.	.	.	.	.	.	.	.	.	.	.	.	.
16E-\	.	8g\	8b-\	.	8g/	.	8b-\	.	.	.	.	.	.	8b-\	-na	.	.	8g/	.	8b-\	8gg\	8bb-\	.
16E-\JJ	.	.	.	.	.	.	.	.	.	.	.	.	.	.	.	.	.	.	.	.	.	.	.
16E-\LL	.	8a-\	8cc\	.	8a-/	.	8cc\	.	.	.	.	.	.	8cc\	in	.	.	8a-/	.	8cc\	8aa-\	8ccc\	.
16E-\	.	.	.	.	.	.	.	.	.	.	.	.	.	.	.	.	.	.	.	.	.	.	.
16E-\	.	8f\J	8dd\J	.	8f/J	.	8dd\J	.	.	.	.	.	.	8dd\	ex-	.	.	8f/J	.	8dd\J	8ff\J	8ddd\J	.
16E-\JJ	.	.	.	.	.	.	.	.	.	.	.	.	.	.	.	.	.	.	.	.	.	.	.
!	!	!	!	!	!	!	!LO:LB:g=original	!	!	!	!	!	!	!	!	!	!	!	!	!	!	!	!
!LO:TX:t=P:problem:mixed beam	!	!	!	!	!	!	!	!	!	!	!	!	!	!	!	!	!	!	!	!	!	!	!
8E-\L	.	4b-\	4ee-\	.	4g/	.	4ee-\	4r	.	4r	.	4r	.	4ee-\	-cel-	4r	4r	4g/	.	4ee-\	4bb-\	4eee-\	.
8EE-/J	.	.	.	.	.	.	.	.	.	.	.	.	.	.	.	.	.	.	.	.	.	.	.
!	!LO:DY:b	!	!	!	!	!	!	!	!	!	!	!	!	!	!	!	!	!	!	!	!	!	!
8r	f	8r	8b-\	.	8r	.	8b-\L	8r	.	8r	.	8r	.	8b-\	-sis,	8r	8r	8r	.	8b-\L	8r	8bb-\L	.
!	!	!	!	!LO:DY:b:t=for	!	!	!	!	!	!	!	!	!	!	!	!	!	!	!	!	!	!	!
8D\	.	8d\	8d\	f	8a-/	.	8cc\J	8D\	O-	8F/	O-	8a-\	O-	8cc\	o-	8aa-\	8ccc\	8aa-\	.	8ccc\J	8dd\	8ddd\J	.
!	!	!	!	!	!	!	!	!	!	!LO:LB:g=original	!	!	!	!LO:LB:g=original	!	!	!	!	!	!	!	!	!
=17	=17	=17	=17	=17	=17	=17	=17	=17	=17	=17	=17	=17	=17	=17	=17	=17	=17	=17	=17	=17	=17	=17	=17
!	!	!	!	!	!	!LO:DY:b:t=f&colon;	!	!	!	!	!	!	!	!	!	!	!	!	!	!	!	!	!
8E-\L	.	8e-\L	8e-\L	.	8g/L	f	8b-/L	8E-\	-san-	8G/	-san-	8g\	-san-	8b-\	-san-	8gg\L	8bb-\L	8gg\L	.	8bb-\L	8ee-\L	8ee-\L	.
8F\	.	8f\	8f\	.	8f/	.	8a-/	8F\	-na	8G/	-na	8f\	-na	8a-\	-na	8ff\	8aa-\	8ff\	.	8aa-\	8ff\	8ff\	.
8G\	.	8g\	8g\	.	8e-/	.	8g/	8G\	in	8B-\	in	8e-\	in	8g\	in	8ee-\	8gg\	8ee-\	.	8gg\	8gg\	8gg\	.
8A-\J	.	8a-\J	8a-\J	.	8f/J	.	8f/J	8A-\	ex-	8c\	ex-	8f\	ex-	8f\	ex-	8ff\J	8ff\J	8ff\J	.	8ff\J	8aa-\J	8aa-\J	.
!	!	!	!	!	!	!	!	!	!	!	!	!LO:SIC:s=:v:cel-	!	!	!	!	!	!	!	!	!	!	!
4B-\	.	4b-\	4b-\	.	4e-/	.	4g/	4B-\	-cel-	2B-\	-cel-	(4e-\	-cael-	(4g/	-cel-	4ee-\	4gg\	4ee-\	.	4gg\	4bb-\	4bb-\	.
!	!	!	!	!	!	!	!	!	!	!	!	!	!	!	!	!	!	!LO:TX:i:b:t=vi ∅	!	!	!	!	!
4BB-/	.	4B-/	4B-/	.	4d/	.	4f/	4BB-/	.	.	.	4d\)	.	4f/)	.	8.b-/L	4ff\	4dd\	.	4ff\	4bb-\	4bb-\	.
.	.	.	.	.	.	.	.	.	.	.	.	.	.	.	.	16b-/Jk	.	.	.	.	.	.	.
!	!	!	!	!	!	!	!	!	!	!	!	!LO:LB:g=original	!	!	!	!	!	!LO:PB:g=original	!	!	!	!	!
=18	=18	=18	=18	=18	=18	=18	=18	=18	=18	=18	=18	=18	=18	=18	=18	=18	=18	=18	=18	=18	=18	=18	=18
!	!	!	!	!	!	!	!	!	!	!	!	!	!	!	!	!	!	!LO:SIC:o:s=:v:t:2 ostatnie takty dopisane powyżej części Osanna	!	!	!	!	!
!	!	!	!	!	!	!	!	!	!	!	!	!	!	!	!	!	!	!LO:TX:i:b:t=∅	!	!	!	!	!
!	!	!	!	!	!	!	!	!	!	!	!	!	!	!	!	!	!	!LO:TX:i:a:t=de	!	!	!	!	!
8C/	.	4c/	4c/	.	4c/	.	8e-/	8C/	-sis	8G/	-sis	8c/	-sis	8e-/	-sis,	4g/	4ee-\	8cc\	.	8ee-\	4ccc\	4ccc\	.
8AA-/L	.	.	.	.	.	.	4f/	8AA-/	o-	8A-/	o-	8c/	O-	8f/	o-	.	.	4ff\	.	4ff\	.	.	.
8AA-/	.	4A-/	4A-/	.	4cc\	.	.	8AA-/	-san-	8A-/	-san-	8c/	-san-	8f/	-san-	4r	4r	.	.	.	4aa-\	4aa-\	.
8AA-/J	.	.	.	.	.	.	8e-/	8AA-/	-na	8A-/	-na	8c/	-na	8e-/	-na	.	.	8ee-\	.	8ee-\	.	.	.
!	!	!	!	!	!LO:SIC:o:s=:v:8\cente\global:problem	!	!	!	!	!	!	!	!	!	!	!	!	!	!	!	!	!	!
4BB-/	.	4B-/	4B-/	.	8b-\L	.	4d/	4BB-/	in	4A-/	in	4B-/	in	4d/	in	4r	4r	4dd\	.	4dd\	4bb-\	4bb-\	.
.	.	.	.	.	8a-\J	.	.	.	.	.	.	.	.	.	.	.	.	.	.	.	.	.	.
4BB-/	.	4B-/	4B-/	.	4g/	.	4e-/	4BB-/	ex-	4G/	ex-	4B-/	ex-	4e-/	ex-	[4ee-\	4gg\	4ee-\	.	4ee-\	4bb-\	4bb-\	.
!	!	!	!	!	!	!	!	!LO:LB:g=original	!	!	!	!	!	!	!	!	!	!	!	!LO:LB:g=original	!	!	!
=19	=19	=19	=19	=19	=19	=19	=19	=19	=19	=19	=19	=19	=19	=19	=19	=19	=19	=19	=19	=19	=19	=19	=19
*	*	*	*	*	*	*	*	*	*	*	*	*	*	*	*	*	*	*	*	*	*2\right	*2\right	*
!	!	!	!	!	!	!	!	!	!	!	!	!LO:SIC:s=:v:cel-	!	!	!	!	!	!	!	!	!	!	!
2C/	.	2B-/	2B-/	.	4.f/	.	(8e-/L	2BB-/	-cel-	2F/	-cel-	2B-/	-cael-	(4e-/	-cel-	4ee-\]	2ff\	8ee-\L	.	8ee-\L	2bb-\	2bb-\	.
.	.	.	.	.	.	.	8c/J)	.	.	.	.	.	.	.	.	.	.	8cc\J	.	8cc\J	.	.	.
.	.	.	.	.	.	.	4d/	.	.	.	.	.	.	4d/)	.	8.b-/L	.	4dd\	.	4dd\	.	.	.
.	.	.	.	.	8f/	.	.	.	.	.	.	.	.	.	.	.	.	.	.	.	.	.	.
.	.	.	.	.	.	.	.	.	.	.	.	.	.	.	.	16b-/Jk	.	.	.	.	.	.	.
2EE-/	.	2E-/	2E-/	.	2g/	.	2e-/	2EE-/	-sis	2E-/	-sis	2B-/	-sis	2e-/	-sis	2g/	2ee-\	2ee-\	.	2ee-\	2ee-\	2eee-\	.
!	!	!	!	!	!	!	!	!	!	!LO:TX:i:b:t=Agnus Vertat(ur)	!	!	!	!	!	!	!	!	!	!	!	!	!
==	==	==	==	==	==	==	==	==	==	==	==	==	==	==	==	==	==	==	==	==	==	==	==
*-	*-	*-	*-	*-	*-	*-	*-	*-	*-	*-	*-	*-	*-	*-	*-	*-	*-	*-	*-	*-	*-	*-	*-
!!!system-decoration: [(s1,s2,s3,s4)][(s5,s6)][(s7,s8,s9,s10)][(s11,s12,s13,s14)][(s15)]
!!!RDF**kern: > = above
!!!RDF**kern: < = below
!!!ENC: Marta Chmielewska
!!!END: 2020-07-06
!!!EED: Leszek Kubiak
!!!EST: 2020-09-23
!!!RDF**kern: | = vertical stroke
